X: 43116
T: Wine Shower
R: reel
M: 4/4
K: Dmajor
|:FDD/D/D ADFD|D/D/DFD GFEG|FDD/D/D DFAF|ABAF GFEG:|
F/E/DFA dAFD|F/G/A=cA ABAG|~F3A dAFD|G/F/EFD ~E3G|
FAdA FAdA|FAdA ~e3g|edec cBAd|ABBd BAGA||

